X:1
T:Nr 2. ANGELUS DOMINI (Ostermontag)
T:Jos. Gruber, op. 134
T:Nr 1. TERRA TREMUIT (Für Ostersonntag)
T:Nr 2. ANGELUS DOMINI (Ostermontag)
C:Jos. Gruber, op. 134
%%score { ( 1 3 ) | ( 2 4 ) } { ( 5 6 9 10 ) | ( 7 8 11 ) }
L:1/8
Q:1/4=120
M:4/4
K:F
V:1 treble nm="P1"
V:3 treble 
V:2 bass 
V:4 bass 
V:5 treble nm="Orgel"
V:6 treble 
V:9 treble 
V:10 treble 
V:7 bass 
V:8 bass 
V:11 bass 
V:1
"^SOPRANALT""^anastetter, LC;lp':lg.""^Allegro""^Allegro" z8 | z8 | z8 | z8 | z8 | z8 | z8 | z8 | %8
w: ||||||||
w: ||||||||
 z8 | z8 | z8 | z8 | z8 | z8 | z8 | z8 | z8 | z8 | z4!f! A2 A2 | ^c3 d e4 | z8 | z4 A2 e2 | %22
w: ||||||||||Ter- ra|tre- mu- it,||ter- ra|
w: ||||||||||||||
 f3 d!p! d4 | d4!p! c4 | =B4 B2 B2 | (c3 =B) A2 G2 |"^-""^-" (A8- |"^-" A4"^-" G2"^-" F2 | %28
w: tre- mu- it|* et|e- vit, qui-|e- * vit, qui-|e-||
w: |et qui-|e- vit, *||||
"^-""^-""^-""^-" E8 |"^-""^-""^-""^-" D8) | !fermata!E6 z2 | z8 | z4!mf! c2 c2 | c6 B2 | %34
w: ||vit,||dum re-|sur- ge-|
w: ||||||
 A2 (A2 B2) c2 | d3 d d4 |!<(! (f6!<)!"^-" e2) | d2!f!"^-" d6 | ^c4 z4 | z8 | z4!mf! A2 A2 | %41
w: ret in _ ju-|di- ci- o|De- *|us, De-|us,||dum re-|
w: |||||||
 A6 G2 | F2!<(! (F2 G2) A2 | B3 B!<)! B4 |!f!"^-""^-" d8 | G4!p!"^-"!<(! (G4 | %46
w: sur- ge-|ret in _ ju-|di- ci- o|De-|us, De-|
w: |||||
"^-""^-""^-"!>(! [FA]8)!<)!!>)! | G4!f! z4 |"^-""^-" z8 |"^-""^-""^-""^-" z8 |"^-""^-" z8 | %51
w: |us.||||
w: |||||
"^-""^-" z8 |"^-""^-" z8 |"^-""^-""^-" z8 |"^-""^-" z8 | z4 z2!f! G2 | (c2"^-" d2 e2"^-" c2 | %57
w: ||||Al-|le- * * *|
w: ||||||
"^-" d4"^-""^-" c4) | (c2"^-" d2 e2"^-" c2 |"^-" d4) c4 |"^-" (f4"^-" d4 |"^-""^-" e6)"^-" d2 | %62
w: |lu- * * *|* ja,|al- *|* le-|
w: |||||
"^-""^-" d8 | c4 z4 | (A2"^-" _B2"^-" c2 A2) |"^-" (B4 A4) |"^-" (f6"^-" e"^-"d | %67
w: lu-|ja,|al- * * *|le- *|lu- * *|
w: |||||
"^-" c3"^-" B) A4 | z2"^-" (d4"^-" e2 |"^-" f2"^-" c4) B2 |"^-""^-""^-" G8 | F4 (F4 | %72
w: * * ja,||* * le-|lu-|ja, al-|
w: |||||
!<(! B4!<)!"^-" c4 |"^rit.""^-" d4"^-" B2) c2 |"^molto rit."!ff!"^-" d8 | !fermata!c8 |] %76
w: |* * le-|lu-|ja.|
w: ||||
[M:4/4]"^Con moto"[Q:1/4=120]"^Con moto"[Q:1/4=120] z8 | z8 | z8 | z8 | z8 | z8 | z4!mf! c4- | %83
w: ||||||An-|
w: |||||||
 c4 A2 F2 | (F"^-"G"^-"AB"^-" c2"^-" B2 |"^-" G2) G2 A2 c2 | (c"^-"BA"^-"G) F2 c2 | %87
w: * ge- lus|Do- * * * * *|* mi- ni de-|scen- * * * dit de|
w: ||||
 (f"^-"ed"^-"c) =B2 d2 |!<(! (e2 g2) f2!<)! (ed) |"^-" (c6"^-" =B2) | c4 z4 | z8 | z4 z2!mf! c2 | %93
w: coe- * * * lo, de-|scen- * dit de *|coe- *|lo,||et|
w: ||||||
 c3!<(! c d2!<)! d2 | e3 e e4 | z8 |!p! z8 | z8 | z4!mf! z2!<(! c2 | (d4!<)!!>(! B2)!>)! A2 | %100
w: di- xit * mu-|e- ri- bus:||||quem|quae- * ri-|
w: |||||||
 G4 z4 | z4 z2!f! c2 | !^!f4 f2 ee | f4 c2 c2 | !^!f4 f2 ee | f4 c2 c2 | (f4 e2) d2 | c4 f4 | %108
w: tis,|sur-|re- xit si- cut|di- xit, sur-|re- xit si- cut|di- xit, sur-|re- * xit|si- cut|
w: ||||||||
 (e2 d"^-"c"^-""^-" d4) | c4 z4 | z8 | z8 |!mf! z8 | z8 | z4 z2!mf! G2 | (A4 G2) F2 | E4 z4 | %117
w: di- * * *|xit,|||||quem|quae- * ri-|tis,|
w: |||||||||
 z4 z2!f! A2 | d4 d2 ^cc | d4 A2 A2 | d4 d2 ^cc | d4 A2 AA | %122
w: sur-|re- xit si- cut|di- xit, sur-|re- xit si- cut|di- xit, si- cut|
w: |||||
"^rit.""^rit."!<(! (_B2 c2"^-" d2"^-" f2)!<)! |"^a tempo" !fermata!e4!mf!"^a tempo""^a tempo" C4 | %124
w: di- * * *|xit. Al-|
w: ||
!<(! (F4!<)! G4 |"^-" A4"^-" F4) |!>(! G4!>)! F4 | (F4 G4 |"^-" A4) F4 | G4 F4 |!f! (B4 G4 | %131
w: le- *||lu- ja,|al- *|* le-|lu- ja,|al- *|
w: |||||||
"^-" A6)"^-" G2 |"^-""^-"!>(! G8!>)! |"^rit.""^rit." F4!<(! c2!<)!!ff! c2 | !fermata!d8 | %135
w: * le-|lu-|ja, al- le-|lu-|
w: ||||
 !fermata!c8 |] %136
w: ja.|
w: |
V:2
"^TENOR (ad lib.)BASS" z8 | z8 | z8 | z8 | z8 | z8 | z8 | z8 | z8 | z8 | z8 | z8 | z8 | z8 | z8 | %15
w: |||||||||||||||
w: |||||||||||||||
w: |||||||||||||||
w: |||||||||||||||
 z8 | z8 | z8 | z4!f! A,2 A,2 | E3 E E4 | z8 | z4 A,2 E2 | D3 D D4 | z8 | z4!p! =G,2 G,2 | %25
w: ||||||||||
w: ||||||||||
w: ||||||||||
w: ||||||||||
 C4!p! C2 C2 | C4 D4 | [=B,,G,-]8 | G,8- | G,8 | G,6 z2 | z8 | z8 | z8 | z2!mf! F4 E2 | D3 F F4 | %36
w: |||||||||||
w: |||||||||||
w: * et qui-|||||||||||
w: |||||||||||
!<(! C4 ^C4!<)! | D2!f! D6 | E4 z4 | z8 | z8 | z8 | z2!mf!!<(! D4 C2 | D3 D!<)! D4 |!f! [B,D]8 | %45
w: |||||||||
w: |||||||||
w: |||||||||
w: |||||||||
 E4!p!!<(! C4- |!>(! [F,C]8!<)!!>)! | C4 z4 | z8 | z8 | z8 | z8 | z8 | z8 | z8 | z8 | z8 | z8 | %58
w: |||||||||||||
w: |||||||||||||
w: |||||||||||||
w: |||||||||||||
 z8 | z8 | z8 | z8 | z8 |!f! z8 |!f!"^-""^-" C8 |"^-""^-""^-" C8 |"^-""^-" C8- |"^-" C4"^-" C4 | %68
w: ||||||||||
w: ||||||||||
w: ||||||||||
w: ||||||le-||lu-|* ja,|
 D4 B,4 | C6 D2 | C6 B,2 | A,4 F,4 |!<(! F8-!<)! | F6 _E2 |"^molto rit."!ff! D6 =E2 | F8 |] %76
w: ||||||||
w: ||||||||
w: ||||||||
w: ||||||||
[M:4/4] z8 | z8 | z8 | z8 | z8 | z8 | z8 | z8 | z8 | z8 | z8 | z8 | z8 | z8 |!mf! z8 | z8 | %92
w: ||||||||||||||||
w: ||||||||||||||||
w: ||||||||||||||||
w: ||||||||||||||||
 z4 z2!mf! C2 | C3!<(! C C2!<)! C2 | C3 C C4 | z8 | z8 | z8 | z8 | z8 | z8 | z4 z2!f! C2 | %102
w: ||||||||||
w: ||||||||||
w: |* * * mu-|e- ri- bus:||||||||
w: ||||||||||
 C4 C2 CC | C4 F2 C2 | C4 C2 CC | C4 F2 C2 | D4 =B,2 B,2 | C4 C4 | C6 =B,2 | C4!mf! z4 | z8 | z8 | %112
w: ||||||||||
w: ||||||||||
w: ||||||||||
w: ||||||||||
 z8 | z8 | z8 | z8 | z8 | z4 z2!f! A,2 | A,4 A,2 A,A, | A,4 D2 A,2 | A,4 A,2 A,A, | A,4 D2 DD | %122
w: ||||||||||
w: ||||||||||
w: ||||||||||
w: ||||||||||
!<(! D8!<)! | E4!mf! C,4 |!<(! F,4!<)! G,4 | A,4 F,4 |!>(! G,4!>)! F,4 | F,4 G,4 | A,4 F,4 | %129
w: |||||||
w: |||||||
w: |||||||
w: |||||||
 G,4 F,4 |!f! B,4 G,4 | A,6 G,2 |!>(! G,8!>)! | F,4!<(! F2!<)!!ff! F2 | F8 | F8 |] %136
w: |||||||
w: |||||||
w: |||||||
w: |||||||
V:3
 x8 | x8 | x8 | x8 | x8 | x8 | x8 | x8 | x8 | x8 | x8 | x8 | x8 | x8 | x8 | x8 | x8 | x8 | %18
w: ||||||||||||||||||
 x4 A2 A2 | A3 A A4 | x8 | x4 A2 A2 | A3 F F4 | z4 D2 D2 | (G3 F) E2 D2 | E4 E2 E2 | (F8- | %27
w: |||||||||
 F4 E2 D2 | C8- | C2 =B,A,!>(! B,4)!>)! | C6 x2 | x8 | x4 c2 c2 | c6 B2 | A2 (F2 G2) A2 | B3 B B4 | %36
w: |||||||||
 (F4 A2 G2) | F2 (F2 G2 ^G2) | A4 x4 | x8 | x4 A2 A2 | A6 G2 | F2 (D2 E2) F2 | G3 G G4 | (G6 F2) | %45
w: |||||||||
 E4 E4- | x8 | E4 z2 C2 | (F2 G2 A2 F2 | G4 F4) | (F2 G2 A2 F2 | G4) F4 | (B4 G4 | A6) G2 | G8 | %55
w: ||* Al-|le- * * *||lu- * * *|* ja,|al- *|* le-|lu-|
 F4 z4 | x8 | x8 | x8 | x8 | x8 | z8 | z8 | z8 | F8 | (F2 E2 F4) | (A8 | E4) F4 | x2 (F2 G4 | %69
w: ja.||||||||||||||
 F6) F2 | (F2 ED!>(! E4)!>)! | F4 (F4- | F4 A4 | B4 F2) A2 | B8 | A8 |][M:4/4] x8 | x8 | x8 | x8 | %80
w: |||||||||||
 x8 | x8 | x4 c4- | c4 A2 F2 | (FGAB c2 B2 | G2) G2 A2 c2 | (cBAG) F2 A2 | A4 G2 =B2 | %88
w: ||||||||
 (c2 _B2) A2 (GF) | (E2 F2!>)!!>(! D4) | E4 x4 | x8 | x4 x2 E2 | E3 E F2 F2 | G3 G G4 | x8 | %96
w: ||||||||
 z4!<(! A4!<)! | B6!>(! G2!>)! | ^F4 x2 A2 | (B4 G2) =F2 | E4 x4 | x4 x2 c2 | A4 A2 GG | A4 A2 c2 | %104
w: ||||||||
 A4 A2 GG | A4 A2 A2 | (A4 G2) F2 | E4 A4 | (G2 FE F4) | E4 x4 | x8 | x8 | z4 E4 | F6 D2 | %114
w: ||||||||||
 ^C4 x2 E2 | (F4 E2) D2 | ^C4 x4 | x4 x2 A2 | ^F4 F2 EE | ^F4 F2 A2 | ^F4 F2 EE | ^F4 F2 FF | G8 | %123
w: |||||||||
 G4 C4 | (F4 G4 | A4 F4) | G4 F4 | (F4 G4 | A4) F4 | G4 F4 | (B4 G4 | A6) G2 | G8 | F4 A2 A2 | B8 | %135
w: ||||||||||||
 A8 |] %136
w: |
V:4
 x8 | x8 | x8 | x8 | x8 | x8 | x8 | x8 | x8 | x8 | x8 | x8 | x8 | x8 | x8 | x8 | x8 | x8 | %18
w: ||||||||||||||||||
w: ||||||||||||||||||
w: ||||||||||||||||||
 x4 A,2 A,2 | A,3 =B, ^C4 | x8 | x4 A,2 ^C2 | D3 D D4 | x8 | z8 | z4 C,2 C,2 | F,3 E, D,2 C,2 | %27
w: |||||||||
w: |||||||||
w: |||||||||
 x8 | C,3 D, E,2 F,2 | G,4!>(! G,,4!>)! | !fermata!C,6 x2 | x8 | x8 | x8 | x2 D4 C2 | B,3 B, B,4 | %36
w: |||||||||
w: |||||||||
w: |||||||||
 A,8 | B,2 B,6 | A,4 x4 | x8 | x8 | x8 | x2 B,4 A,2 | G,3 G, G,4 | x8 | C4 C,4 | x8 | C,4 x4 | x8 | %49
w: |||||||||||||
w: |||||||||||||
w: |||||||||||||
 x8 | x8 | x8 | x8 | x8 | x8 | x8 | x8 | x8 | x8 | x8 | x8 | x8 | x8 | z4 z2 C,2 | %64
w: |||||||||||||||
w: |||||||||||||||
w: |||||||||||||||
 F,2 G,2 A,2 F,2 | G,4 F,4 | F,2 G,2 A,2 F,2 | G,4 F,4 | B,4 G,4 | A,6 G,2 | C4!>(! C,4!>)! | %71
w: |||||||
w: |||||||
w: |||||||
 F,4 F,4 | D,4 F,4 | B,,4 D,2 F,2 | B,4 B,,4 | !fermata!F,8 |][M:4/4] x8 | x8 | x8 | x8 | x8 | x8 | %82
w: |||||||||||
w: |||||||||||
w: |||||||||||
 x8 | x8 | x8 | x8 | x8 | x8 | x8 | x8 | z4 z2 C,2 | C,3 C, E,2 G,2 | C3 C C4- | C4 C2 C2 | %94
w: ||||||||||||
w: ||||||||||||
w: ||||||||et|di- xit mu- li-|||
 C3 C C4 | x8 | x8 | x8 | x8 | x8 | x8 | x4 x2 C2 | !^!F,4 F,2 CC | F,4 F,2 C2 | !^!F,4 F,2 CC | %105
w: |||||||||||
w: |||||||||||
w: |||||||||||
 F,4 F,2 F,E, | D,4 G,2 ^G,2 | A,4 F,4 | G,8 | C,4 z2 C,2 | C,3 C,!<(! E,2 G,2!<)! | %111
w: ||||||
w: ||||||
w: ||||* et|di- xit mu- li-|
 C3!>(! C!>)! C4 | x8 | x8 | x8 | x8 | x8 | x4 x2 A,2 | D,4 D,2 A,A, | D,4 D,2 A,2 | D,4 D,2 A,A, | %121
w: ||||||||||
w: ||||||||||
w: e- ri- bus:||||||||||
 D,4 D,2 D,D, | G,2 A,2 _B,2 =B,2 | !fermata!C4 C,4 | F,4 G,4 | A,4 F,4 | G,4 F,4 | F,4 G,4 | %128
w: |||||||
w: |||||||
w: |||||||
 A,4 F,4 | G,4 F,4 | B,4 G,4 | A,6 G,2 | G,8 | F,4 F,2 F,2 | !fermata!B,8 | !fermata!F,8 |] %136
w: ||||||||
w: ||||||||
w: ||||||||
V:5
!f! d2 z2 [^ce]2 z2 | [df]2 d2 z4 | z8 | z8 |!p!!<(! z8!<)! | z8 |!<(! C4-!<)! C2 C2 | %7
w: ||||||* Viol.~I.~Corn. *|
 (F4 =E2) _E2 |"^voll" D8 | ^C2 !^![G_B]4 AG | F2 !^!f4 ed | ^c2 !^![GB]4 AG | F2 !^!f4 ed | %13
w: ||||||
 ^c2 z2 [ea]2 [ea]2 | f2 z2 [ad']2 [ad']2 | [ea^c']2 z2 [A^cea]2 [Acea]2 | %16
w: |||
 [Adf]2 z2 [dfad']2 [dfad']2 | [ea^c']2 z2 [A^cea]2 [Acea]2 | [A^cea]2 z2 z4 |"^voll" ^c3 d e4 | %20
w: ||||
!f! [Aa]4 [^G^g]2 [=G=g]2 | [Ff]4 [^C^c]2 e2 | f3 d d4 |"^Viol. Cor."!p! d4 c4 | =B8 | %25
w: |||||
 c3 =B A2 G2 | A8- | A4 G2 F2 | E2 z2 z4 | z8 | z4 !fermata!z2 z2 | z8 | z4!mf! c4- | c6 B2 | %34
w: * * * Clar.|||||||Clar.~Cor.||
 A2 A2 B2 c2 | [FBd]8 |!<(! f6!<)! e2 | d2"^voll"!f! d6 | ^c4 z4 | z8 | z4!mf! A4- | A6 G2 | %42
w: ||||||Clar.~Cor.||
 F2!<(! F2 G2 A2 | [GB]8!<)! |!f! d8 | G4 z4 | z8 |"^Viol. II."!f! z8 | z8 | z8 | z8 | z8 | z8 | %53
w: ||voll|||||||||
 z8 | z8 | z4 z2 =B2 | c2 d2 e2 c2 | d4 c4 | c2 d2 e2 c2 | d4 c4 | f4 d4 | e6 d2 | d8 | %63
w: ||Clar.|||||Tromba *|||
 c2!f! d2 c2"^voll" B2 | A2 B2 c2 A2 | B4 A4 | f6 ed | c3 B A4 | z2 d4 e2 | f2 c4 B2 | G8 | F4 z4 | %72
w: |||||||||
 B4 c4 | d4 B2 c2 |"^molto rit." [Bd]8 | !fermata!c8 |][M:4/4]!p! Acfe dcBA |"^cresc." Bdgf edcB | %78
w: ||Pleno||Violinen Corno * * * * * *||
 ceag fedc | dfba gfed | e2 fg fedc | B6 A2 | G6 G2 | A4 z4 |!p! FGAB c2 B2 | G4 A2 c2 | %86
w: ||||||Viol. * * * * *||
 cBAG F2 c2 | fedc =B2 d2 |!<(! e2 g2 f2!<)! ed | c6!>)!!>(! =B2 | c4 z4 | z8 | z4 z2"^voll" c2 | %93
w: Cor. * * * * *|||Cor. *||||
 c4 d4 | [Ge]8 |!p! F6 F2 | ^F4 A4 | B6 G2 | ^F2 A2 B2 c2 | d4 B2 A2 | G4 z4 |"^voll" F4 A2 c2 | %102
w: ||Viol., Clar.,|||* * * Clar.||||
 f4 z4 | F4 A2 c2 | f4 z4 | F4 A2 c2 | f4 e2 d2 | c4 f4 | e2 dc d4 | c4 z4 | z8 |"^voll" C6 C2 | %112
w: ||||||||||
 ^C4 E4 | F6 D2 | ^C2 E2 F2 G2 | A4 G2 F2 | E4 z4 |"^voll" D4 ^F2 A2 | d4 z4 | D4 ^F2 A2 | d4 z4 | %121
w: * Viol.||* * * Clar.|||||||
 D4 ^F2 A2 |!<(! _B2 c2 d2 f2!<)! | !fermata![ce]4 z4 |!<(! F4!<)! G4 | A4 F4 | G4 F4 | F4 G4 | %128
w: |||||||
 A4 F4 | G4 F4 |!f! B4 G4 | A6 G2 | G8 | F4!<(! c4!<)! |!ff! !fermata![Bd]8 | !fermata![Ac]8 |] %136
w: ||||||||
V:6
 [FA]2 x2 [EA]2 x2 | [FA]2 [FA]2 x4 | x8 | x8 | G,4- G,2 G,2 | (C4 =B,2) _B,2 | A,4- A,4 | %7
 B,6 A,2 | B,4 A,2 ^G,2 | A,2 [^CE]4- [CE]2 | D2 A4 GF | E2 [^CE]4- [CE]2 | [A,D]2 A4 GF | %13
 E2 x2 [A^c]2 [Ac]2 | [Ad]2 x2 [df]2 [df]2 | x8 | x8 | x8 | x8 | A8 | x8 | x4 x2 A2 | %22
 A3 [FA] [FA]4 | D8 | G3 F E2 D2 | E8 | F8- | F4 E2 D2 | C2 x2 x4 | x8 | x8 | x8 | x8 | D4 E4 | %34
 F2 F2 G2 A2 | x8 | F4 A2 G2 | F2 F2 G2 ^G2 | A4 x4 | x8 | x8 | =B,4 ^C4 | D2 D2 E2 F2 | x8 | %44
 G6 F2 | E4 x4 | x8 | z4 z2 C2 | F2 G2 A2 F2 | G4 F4 | F2 G2 A2 F2 | G4 F4 | B4 G4 | A6 G2 | G8 | %55
 F2 A2 G2 G2 | G8 | A2 =B2 c2 BA | G2 F2 E2 G2 | A2 =B2 c2 A2 | A4 =BA B2 | c6- c2- | %62
 c2 =BA G2 F2 | E2 _B2 A2 G2 | F8- | F2 E2 F4 | A8 | E4 F4 | x2 F2 G4 | F8- | F2!>(! ED!>)! E4 | %71
 C4 x4 | F4- F4 | F4- F2 F2- | F6 G2 | [FA]8 |][M:4/4] A6 z2 | B6 z2 | c6 z2 | d6 z2 | c6 F2 | %81
 G6 F2- | F2 ED!>(! E4 | x4!>)! x4 | F4- F4- | F2 E2 F2 z2 | F4 C2 [FA]2- | [FA]4 G2 G2- | %88
 G2 _B2 A2 GF | G8- | [EG]4 x4 | x8 | x4 x2 E2 | E4 F4 | x8 | C8 | D4- D4- | D4 ^C4 | %98
 D2 ^F2 G2 A2 | B4 G2 =F2 | E4 x4 | F4 A2 c2 | [FAc]4 x4 | F4 A2 c2 | [FAc]4 x4 | F4 A2 A2 | %106
 A4 G2 F2 | E4 A4 | G2 FE F4 | E4 x4 | x8 | x8 | x4 ^C4 | D4 ^G,4 | A,2 ^C2 D2 E2 | F4 E2 D2 | %116
 ^C4 x4 | D4 ^F2 A2 | [D^FA]4 x4 | D4 ^F2 A2 | [^FA]4 x4 | D4 ^F2 F2 | G8 | [EG]4 x4 | C4- C4- | %125
 C4- C4 | D2 C2 F2 ED | C4 E2 D2 | ^C4 D4- | [B,D-]4 D4- | D4 C4- | C6 D2 | C6 B,2 | C4 [FA]4 | %134
 F8 | F8 |] %136
V:7
"^P""^voll" [D,D]2 z2 [A,,A,]2 z2 | [D,D]2 [D,D]2 z4 |!p!!<(! D,4- D,2 D,2!<)! | G,4 ^F,2 =F,2 | %4
w: ||||
w: ||* Viola~u.~Cello- *||
 E,8 | F,4 D,2 E,2 | F,4- F,4- | F,4 G,2 F,2- |!f!!<(! F,6 D,2!<)! | E,2 x2 x4 | A,2 A,6- | A,8- | %12
w: ||||||||
w: Viol.~II.-||||||||
 A,8 | A,,=B,,^C,D, E,F,G,A, | D,E,F,G, A,=B,^CD | A,,=B,,^C,D, E,F,G,A, | D,E,F,G, A,=B,^CD | %17
w: |||||
w: |||||
 A,2 z2 [A,,A,]2 [A,,A,]2 | [A,,A,]2 z2 z4 | E3 D ^C4 | A,4 ^G,2 =G,2 | F,4 ^C,2 ^C2 | D3 D D4 | %23
w: ||||||
w: ||||||
 =B,4 A,4 | G,8 |!p!"^P" C8 | F,3 E, D,2 C,2 |!>(! G,8-!>)! | G,2 z2 z4 | z8 | %30
w: |||||||
w: |||||||
 z4 !fermata!z2!f! C,2 | D,2 E,2 F,2 G,2 | A,3 B,"^Man." C4 | B,4 C4 | D2 F4 E2 | B,8 | %36
w: ||||||
w: Viola~~u.~Cello-||||||
"^P" C4 ^C4 | D2 D6 | E4!f! z2 A,,2 | =B,,2 ^C,2 D,2 E,2 | F,3 G, A,4 | G,4 A,4 | B,2 D4 C2 | %43
w: |||||||
w: ||* Viola~u.~Cello-|||||
 [G,,G,D]8 | [B,,B,D]8 | C4 z4 | z8 | z8 | z4!p! F4- | F2 E2 FE/D/ CB, | A,2 G,2 F,2 F2- | %51
w: ||||||||
w: ||||||||
 F2 E2 DCB,A, | G,2 A,B, CD E2 | FCDE F4- | F2 ED E4 | F2 F2 E2 D2 | E2 =B,2 C2 E2 | F2 G2 A2 GF | %58
w: |||||||
w: |||||||
 E2 D2 C2 E2 | F2 G2 A2 FE | D2 EF G4 | C=B,CD E2 F2 | G2 G,2 A,2 =B,2 | C2 C2 D2"^P" E2 | C8- | %65
w: |||||||
w: |||||||
 C8 | C8- | C8 | D4 B,4 | C6 D2 | C6 B,2 | A,4 z4 |!<(! D,4!<)! F,4 | x6 _E2 | D6 E2 | F,8 |] %76
w: |||||||||||
w: |||||||||||
[M:4/4]"^P" C4 D4- | D4 E4- | E4 F4- | F4 G4- | G2 FE F2 C2 | D4 C4- | C8- | C4"^Man." z4 | %84
w: ||||||||
w: ||||||||
 D4 C2 D2 | C4- C2 z2 | A,4- A,2 x2 | x4 D2 x2 | C2 E,2 F,4 | E2 F2 D4 |!mf!"^P" z8 | z8 | %92
w: ||||||||
w: ||||||||
 z4 z2 C2- |!<(! [C,C]8-!<)! |"^Man." [C,C]8 | A,8- | A,4!<(! ^F,4!<)! | G,4-!>)!!>(! G,4 | %98
w: ||||||
w: ||||||
 A,2"^P"!<)!!<(! x6 | G,,4!>(! B,,2!>)! =B,,2 | G,4 z4 |"^P"!f! F,4 A,2 C2 | C4 z4 | F,4 A,2 C2 | %104
w: ||||||
w: ||||||
 C4 z4 | F,4 A,2 C2 | D4 =B,4 | C4- C4- | C6 =B,2 | C4!mf! z4 | z8 |!p! [E,G,]8 | A,4"^Man." A,4- | %113
w: |||||||||
w: |||||||||
 A,4 D,4 | E,2 z2 z2 A,2- | A,8- | A,4 z4 |"^P"!f! D,4 ^F,2 A,2 | D,4 z4 | D,4 ^F,2 A,2 | D4 z4 | %121
w: ||||||||
w: ||||||||
 D,4 ^F,2 D2 | D8 | !fermata![C,G,C]4 z4 |!mf! A,4 x4 | F,4 A,,4 |!>(! x4!>)! A,2 z2 | %127
w: ||||||
w: ||||||
 A,,4 C,2 B,,2 | x4 A,4 | x4 A,4 | G,2 F,4 E,2 | F,8- | F,2 E,D, E,4 | A,4 C4 | [B,D]8 | [A,C]8 |] %136
w: |||||||||
w: |||||||Pleno||
V:8
 x8 | x8 | D,4 ^C,2 =C,2 | =B,,8 | C,4 _B,,4 | A,,4 G,,2 C,2 | F,4 _E,4 | D,4 C,2 F,2 | B,,8 | %9
 A,,8- | A,,8- | A,,8- | A,,8 | x8 | x8 | x8 | x8 | x8 | x8 | [A,,A,]8 | x8 | x6 A,2 | %22
 [D,A,]3 [D,A,] [D,A,]4 | z8 | z8 | z4 C,2 C,2 | x8 | =B,,8 | C,2 x2 x4 | x8 | x4 x2 z2 | %31
 z2 C,2 D,2 E,2 | F,3 G, A,4 | x8 | x2 D4 C2 | x8 | [A,,A,]8 | [B,,B,]2 [B,,B,]6 | [A,,A,]4 z4 | %39
 z2 A,,2 =B,,2 ^C,2 | D,3 E, F,4 | x8 | x2 B,4 A,2 | x8 | x8 | [C,C]4 x4 | x8 | x8 | z8 | z8 | z8 | %51
 z8 | z8 | z8 | z8 | z8 | z8 | z8 | z8 | z8 | z8 | z8 | z8 | z4 z2 C,2 | F,2 G,2 A,2 F,2 | %65
 G,4 F,4 | F,2 G,2 A,2 F,2 | G,4 F,4 | B,4 G,4 | A,6 G,2 | C4 C,4 | F,4 x4 | x8 | B,,4 D,2 F,2 | %74
 B,,8 | !fermata!F,,8 |][M:4/4] F,8 | G,8 | A,8 | B,8- | B,4 A,4 | G,F,E,D, E,2 F,2 | C,6 C,2 | %83
 F,4 x4 | B,4 A,2 G,2 | C4 F,2 x2 | F,4- F,2 F,E, | D,2 F,2 G,2 G,2 | x8 | G,8 | C,4 z2 C,2 | %91
 C,4 E,2 G,2 | C3 C, C,4- | x8 | x8 | F,4 _E,4 | D,4- D,4 | G,4 _E,4 | D,2 D,6 | x8 | C,4 x4 | %101
 F,4 A,2 C2 | F,4 x4 | F,4 A,2 C2 | F,4 x4 | F,4 A,2 F,E, | D,4 G,2 ^G,2 | A,4 F,4 | G,8 | %109
 [C,G,]4 z2 C,2 | C,4!<(! E,2 G,2!<)! | C,4!>(! _B,,4!>)! | [A,,E,]4 A,,4 | D,4 _B,,4 | %114
 A,,2 x2 x2 A,,2- | A,,8- | A,,4 x4 | D,4 ^F,2 A,2 | x8 | D,4 ^F,2 A,2 | D,4 x4 | D,4 ^F,2 D,2 | %122
 [G,,G,]2 [A,,A,]2 [_B,,_B,]2 [=B,,=B,]2 | x8 | F,6 E,2 | x8 | B,,2 C,2 D,2 C,B,, | x8 | A,,4 D,4 | %129
 G,,2 B,,2 D,4 | G,,4 C,4 | F,,2 G,,2 A,,2 B,,2 | C,8 | F,,4 F,,4 | !fermata![B,,F,]8 | %135
 !fermata![F,,F,]8 |] %136
V:9
 x8 | x8 | x8 | x8 | x8 | x8 | x8 | x8 | x8 | x8 | x2 A4- A2- | A2 x2 x4 | x2 A4- A2- | A2 x2 x4 | %14
 x8 | x8 | x8 | x8 | x8 | x8 | x8 | x8 | x8 | x8 | x8 | x8 | C4 D4 | x8 | x8 | x8 | x8 | x8 | x8 | %33
 x8 | x8 | x8 | x8 | x8 | x8 | x8 | x8 | x8 | x8 | x8 | x8 | x8 | x8 | x8 | x8 | x8 | x8 | x8 | %52
 x8 | x8 | x8 | x8 | x8 | x8 | x8 | x8 | x8 | x8 | x8 | x8 | x8 | x8 | x8 | x8 | x8 | x8 | x8 | %71
 x8 | B4 A4 | B4- B2 A2 | x8 | x8 |][M:4/4] x8 | x8 | x8 | x8 | x8 | x8 | x8 | x8 | x8 | x8 | x8 | %87
 x6 =B2 | c2- c4 A2 | x8 | x8 | x8 | x8 | x8 | x8 | x8 | x8 | x8 | x2 D6- | D6- D2 | x8 | x8 | x8 | %103
 x8 | x8 | x8 | x8 | x8 | x8 | x8 | x8 | x8 | x8 | x8 | x8 | x8 | x8 | x8 | x8 | x8 | x8 | x8 | %122
 x8 | x8 | x4 C4 | F4 F4- | F2 E2 x4 | F4 E4- | E4 x4 | x8 | x8 | x8 | x8 | x8 | x8 | x8 |] %136
V:10
 x8 | x8 | x8 | x8 | x8 | x8 | x8 | x8 | x8 | x8 | x8 | x8 | x8 | x8 | x8 | x8 | x8 | x8 | x8 | %19
 x8 | x8 | x8 | x8 | x8 | x8 | x8 | x8 | x8 | x8 | x8 | x8 | x8 | x8 | x8 | x8 | x8 | x8 | x8 | %38
 x8 | x8 | x8 | x8 | x8 | x8 | x8 | x8 | x8 | x8 | x8 | x8 | x8 | x8 | x8 | x8 | x8 | x8 | x8 | %57
 x8 | x8 | x8 | x8 | x8 | x8 | x8 | x8 | x8 | x8 | x8 | x8 | x8 | x8 | x8 | F4 x4 | x8 | x8 | x8 |] %76
[M:4/4] x8 | x8 | x8 | x8 | x8 | x8 | x8 | x8 | x8 | x8 | x8 | x8 | x8 | x8 | x8 | x8 | x8 | x8 | %94
 x8 | x8 | x8 | x8 | x8 | x8 | x8 | x8 | x8 | x8 | x8 | x8 | x8 | x8 | x8 | x8 | x8 | x8 | x8 | %113
 x8 | x8 | x8 | x8 | x8 | x8 | x8 | x8 | x8 | x8 | x8 | x8 | x8 | x8 | x8 | x8 | x8 | x8 | x8 | %132
 x8 | x8 | x8 | x8 |] %136
V:11
 x8 | x8 | x8 | x8 | x8 | x8 | x8 | x8 | x8 | x8 | x8 | x8 | x8 | x8 | x8 | x8 | x8 | x8 | x8 | %19
 x8 | x8 | x8 | x8 | x8 | x8 | x8 | x8 | x8 | x8 | x8 | x8 | x8 | x8 | x8 | x8 | x8 | x8 | x8 | %38
 x8 | x8 | x8 | x8 | x8 | x8 | x8 | x8 | x8 | x8 | x8 | x8 | x8 | x8 | x8 | x8 | x8 | x8 | x8 | %57
 x8 | x8 | x8 | x8 | x8 | x8 | x8 | x8 | x8 | x8 | x8 | x8 | x8 | x8 | x8 | x8 | x8 | x8 | x8 |] %76
[M:4/4] x8 | x8 | x8 | x8 | x8 | x8 | x8 | x8 | x8 | x8 | x8 | x8 | x8 | x8 | x8 | x8 | x8 | x8 | %94
 x8 | x8 | x8 | x8 | x8 | x8 | x8 | x8 | x8 | x8 | x8 | x8 | x8 | x8 | x8 | x8 | x8 | x8 | x8 | %113
 x8 | x8 | x8 | x8 | x8 | x8 | x8 | x8 | x8 | x8 | x8 | x8 | x8 | x8 | x8 | x8 | x8 | x8 | x8 | %132
 x8 | F,4 F,4 | x8 | x8 |] %136

